docs/images/icons/time.svg

<svg width="25" height="25" fill="none" xmlns="http://www.w3.org/2000/svg"><path d="M12.5 0C5.6 0 0 5.6 0 12.5 0 19.39 5.6 25 12.5 25 19.39 25 25 19.39 25 12.5 25 5.6 19.39 0 12.5 0Zm5.58 17.67c-.16.16-.37.24-.58.24-.22 0-.43-.08-.59-.24l-5-5a.834.834 0 0 1-.25-.59v-7.5c0-.46.38-.83.84-.83.46 0 .83.37.83.83v7.15l4.75 4.76c.33.33.33.85 0 1.18Z" fill="#3742F3"/></svg>

<svg width="25.000000" height="25.000000" viewBox="0 0 25 25" fill="none" xmlns="http://www.w3.org/2000/svg" xmlns:xlink="http://www.w3.org/1999/xlink">
	<desc>
			Created with Pixso.
	</desc>
	<defs/>
	<path id="Vector" d="M12.5 0C5.6 0 0 5.6 0 12.5C0 19.39 5.6 25 12.5 25C19.39 25 25 19.39 25 12.5C25 5.6 19.39 0 12.5 0ZM18.08 17.67C17.92 17.83 17.71 17.91 17.5 17.91C17.28 17.91 17.07 17.83 16.91 17.67L11.91 12.67C11.75 12.51 11.66 12.3 11.66 12.08L11.66 4.58C11.66 4.12 12.04 3.75 12.5 3.75C12.96 3.75 13.33 4.12 13.33 4.58L13.33 11.73L18.08 16.49C18.41 16.82 18.41 17.34 18.08 17.67Z" fill="#3742F3" fill-opacity="1.000000" fill-rule="nonzero"/>
</svg>
